src/pos-icons/order-bool-descending.svg

<svg height="24" viewBox="0 0 24 24" width="24" xmlns="http://www.w3.org/2000/svg"><path d="m6 13c-2.21 0-4 1.79-4 4s1.79 4 4 4 4-1.79 4-4-1.79-4-4-4m0 6c-1.1 0-2-.9-2-2s.9-2 2-2 2 .9 2 2-.9 2-2 2m0-16c-2.21 0-4 1.79-4 4s1.79 4 4 4 4-1.79 4-4-1.79-4-4-4m6 2h10v2h-10zm0 14v-2h10v2zm0-8h10v2h-10z"/></svg>

<?xml version="1.0" encoding="UTF-8"?><!DOCTYPE svg PUBLIC "-//W3C//DTD SVG 1.1//EN" "http://www.w3.org/Graphics/SVG/1.1/DTD/svg11.dtd"><svg xmlns="http://www.w3.org/2000/svg" xmlns:xlink="http://www.w3.org/1999/xlink" version="1.1" id="mdi-order-bool-descending" width="24" height="24" viewBox="0 0 24 24"><path d="M6 13C3.79 13 2 14.79 2 17S3.79 21 6 21 10 19.21 10 17 8.21 13 6 13M6 19C4.9 19 4 18.1 4 17S4.9 15 6 15 8 15.9 8 17 7.1 19 6 19M6 3C3.79 3 2 4.79 2 7S3.79 11 6 11 10 9.21 10 7 8.21 3 6 3M12 5H22V7H12V5M12 19V17H22V19H12M12 11H22V13H12V11Z" /></svg>
